X:714
T:Headlands, The
C:Ronnie Cooper
S:Sessions
Z:Nigel Gatherer
M:2/4
L:1/8
K:A
e>d   | dc  BA | A<c E>A | FA  df | e2  
ef/g/ | a>e fa | fe  dc  | c>B Ac | B2
e>d   | dc  BA | A<c E>A | FA  df | a2 
gf    | ea  Ac | Bf  ed  | c2  A2 | A2 :|
ef/g/ | a>e fa | ce  cA  | dA  df | e2 
ef/g/ | a>e fa | fe  dc  | c>B Ac | B2
ef/g/ | a>e fa | ce  cA  | dA  df | a2 
gf    | ea  Ac | Bf  ed  | c2  A2 | A2 
ef/g/ | a>e fa | ce  cA  | dA  df | e2 
ef/g/ | a>e fa | fe  dc  | c>B Ac | B2
e>d   | dc  BA | A<c E>A | FA  df | a2 
gf    | ea  Ac | Bf  ed  | c2  A2 | A2 ||
<end>
<start>
